X:15
T:Where E'er You Go
C:Roy Watrous, 1986
S:The Watrous Book, 1992
M:3/4
L:1/4
Q:1/4=120
K:D
%%MIDI program 72
%%MIDI transpose 8
%%MIDI ratio 3 1
A,|D2D|EFG|FA2-|A2D|GAB|A2E|F3-|F2A|B2B|
c2B/c/|d2A|F2D|B2A|G2F|E3-|E2A,|D2D|EFG|FA2-|A2D|
GAB|A2E|F3-|F2A|B2B|c2B/c/|d2A|B2G|FAA|GEC|D3-|D2z:|]
W:The grass is green in the meadow
W:The birds singing in the trees
W:The rippling stream, like a young man's dream
W:Flows gently to the sea.
W:But you have gone from our valley
W:My heart is so sad and low
W:But where you are, whether near or far
W:I'll love you wher e'er you go

